src/assets/images/eyes/26.svg

<svg width="32" height="32" viewBox="0 0 32 32" fill="none" xmlns="http://www.w3.org/2000/svg">
<g filter="url(#filter0_f_7320_6152)">
<path d="M26.2908 13.9762C25.8808 11.3762 23.4509 9.10621 20.5609 9.73621C18.2509 10.2362 16.7809 12.5162 17.2809 14.8262C17.6809 16.6762 19.5009 17.8462 21.3509 17.4462C22.8309 17.1262 23.7709 15.6662 23.4509 14.1862C23.1909 13.0062 22.2208 12.3562 21.0408 12.6062C20.0908 12.8062 19.7309 14.4562 20.6609 14.7362" stroke="#B87506" stroke-width="1.5" stroke-miterlimit="10" stroke-linecap="round" stroke-linejoin="round"/>
</g>
<g filter="url(#filter1_f_7320_6152)">
<path d="M4.29094 13.9762C4.70094 11.3762 7.13094 9.10621 10.0209 9.73621C12.3309 10.2362 13.8009 12.5162 13.3009 14.8262C12.9009 16.6762 11.0809 17.8462 9.23094 17.4462C7.75094 17.1262 6.81094 15.6662 7.13094 14.1862C7.39094 13.0062 8.36094 12.3562 9.54094 12.6062C10.4909 12.8062 10.8509 14.4562 9.92094 14.7362" stroke="#B56318" stroke-width="1.5" stroke-miterlimit="10" stroke-linecap="round" stroke-linejoin="round"/>
</g>
<path d="M26.9783 13.32C26.5683 10.72 24.1384 8.44996 21.2484 9.07996C18.9384 9.57996 17.4684 11.86 17.9684 14.17C18.3684 16.02 20.1884 17.19 22.0384 16.79C23.5184 16.47 24.4584 15.01 24.1384 13.53C23.8784 12.35 22.9083 11.7 21.7283 11.95C20.7783 12.15 20.4184 13.8 21.3484 14.08" stroke="url(#paint0_radial_7320_6152)" stroke-width="2" stroke-miterlimit="10" stroke-linecap="round" stroke-linejoin="round"/>
<path d="M26.9783 13.32C26.5683 10.72 24.1384 8.44996 21.2484 9.07996C18.9384 9.57996 17.4684 11.86 17.9684 14.17C18.3684 16.02 20.1884 17.19 22.0384 16.79C23.5184 16.47 24.4584 15.01 24.1384 13.53C23.8784 12.35 22.9083 11.7 21.7283 11.95C20.7783 12.15 20.4184 13.8 21.3484 14.08" stroke="url(#paint1_linear_7320_6152)" stroke-width="2" stroke-miterlimit="10" stroke-linecap="round" stroke-linejoin="round"/>
<path d="M26.9783 13.32C26.5683 10.72 24.1384 8.44996 21.2484 9.07996C18.9384 9.57996 17.4684 11.86 17.9684 14.17C18.3684 16.02 20.1884 17.19 22.0384 16.79C23.5184 16.47 24.4584 15.01 24.1384 13.53C23.8784 12.35 22.9083 11.7 21.7283 11.95C20.7783 12.15 20.4184 13.8 21.3484 14.08" stroke="url(#paint2_linear_7320_6152)" stroke-width="2" stroke-miterlimit="10" stroke-linecap="round" stroke-linejoin="round"/>
<path d="M4.97844 13.32C5.38844 10.72 7.81844 8.44996 10.7084 9.07996C13.0184 9.57996 14.4884 11.86 13.9884 14.17C13.5884 16.02 11.7684 17.19 9.91844 16.79C8.43844 16.47 7.49844 15.01 7.81844 13.53C8.07844 12.35 9.04844 11.7 10.2284 11.95C11.1784 12.15 11.5384 13.8 10.6084 14.08" stroke="url(#paint3_radial_7320_6152)" stroke-width="2" stroke-miterlimit="10" stroke-linecap="round" stroke-linejoin="round"/>
<path d="M4.97844 13.32C5.38844 10.72 7.81844 8.44996 10.7084 9.07996C13.0184 9.57996 14.4884 11.86 13.9884 14.17C13.5884 16.02 11.7684 17.19 9.91844 16.79C8.43844 16.47 7.49844 15.01 7.81844 13.53C8.07844 12.35 9.04844 11.7 10.2284 11.95C11.1784 12.15 11.5384 13.8 10.6084 14.08" stroke="url(#paint4_linear_7320_6152)" stroke-width="2" stroke-miterlimit="10" stroke-linecap="round" stroke-linejoin="round"/>
<path d="M4.97844 13.32C5.38844 10.72 7.81844 8.44996 10.7084 9.07996C13.0184 9.57996 14.4884 11.86 13.9884 14.17C13.5884 16.02 11.7684 17.19 9.91844 16.79C8.43844 16.47 7.49844 15.01 7.81844 13.53C8.07844 12.35 9.04844 11.7 10.2284 11.95C11.1784 12.15 11.5384 13.8 10.6084 14.08" stroke="url(#paint5_linear_7320_6152)" stroke-width="2" stroke-miterlimit="10" stroke-linecap="round" stroke-linejoin="round"/>
<g filter="url(#filter2_f_7320_6152)">
<path d="M26.9783 13.32C26.5683 10.72 24.1384 8.44996 21.2484 9.07996C18.9384 9.57996 17.4684 11.86 17.9684 14.17C18.3684 16.02 20.1884 17.19 22.0384 16.79C23.5184 16.47 24.4584 15.01 24.1384 13.53C23.8784 12.35 22.9083 11.7 21.7283 11.95C20.7783 12.15 20.4184 13.8 21.3484 14.08" stroke="#694C5E" stroke-width="0.4" stroke-linecap="round" stroke-linejoin="round"/>
</g>
<g filter="url(#filter3_f_7320_6152)">
<path d="M4.97844 13.32C5.38844 10.72 7.81844 8.44996 10.7084 9.07996C13.0184 9.57996 14.4884 11.86 13.9884 14.17C13.5884 16.02 11.7684 17.19 9.91844 16.79C8.43844 16.47 7.49844 15.01 7.81844 13.53C8.07844 12.35 9.04844 11.7 10.2284 11.95C11.1784 12.15 11.5384 13.8 10.6084 14.08" stroke="#694C5E" stroke-width="0.4" stroke-linecap="round" stroke-linejoin="round"/>
</g>
<defs>
<filter id="filter0_f_7320_6152" x="15.4331" y="7.87793" width="12.6079" height="11.3969" filterUnits="userSpaceOnUse" color-interpolation-filters="sRGB">
<feFlood flood-opacity="0" result="BackgroundImageFix"/>
<feBlend mode="normal" in="SourceGraphic" in2="BackgroundImageFix" result="shape"/>
<feGaussianBlur stdDeviation="0.5" result="effect1_foregroundBlur_7320_6152"/>
</filter>
<filter id="filter1_f_7320_6152" x="2.54077" y="7.87793" width="12.6079" height="11.3969" filterUnits="userSpaceOnUse" color-interpolation-filters="sRGB">
<feFlood flood-opacity="0" result="BackgroundImageFix"/>
<feBlend mode="normal" in="SourceGraphic" in2="BackgroundImageFix" result="shape"/>
<feGaussianBlur stdDeviation="0.5" result="effect1_foregroundBlur_7320_6152"/>
</filter>
<filter id="filter2_f_7320_6152" x="17.0707" y="8.17319" width="10.7077" height="9.49517" filterUnits="userSpaceOnUse" color-interpolation-filters="sRGB">
<feFlood flood-opacity="0" result="BackgroundImageFix"/>
<feBlend mode="normal" in="SourceGraphic" in2="BackgroundImageFix" result="shape"/>
<feGaussianBlur stdDeviation="0.3" result="effect1_foregroundBlur_7320_6152"/>
</filter>
<filter id="filter3_f_7320_6152" x="4.17844" y="8.17319" width="10.7077" height="9.49517" filterUnits="userSpaceOnUse" color-interpolation-filters="sRGB">
<feFlood flood-opacity="0" result="BackgroundImageFix"/>
<feBlend mode="normal" in="SourceGraphic" in2="BackgroundImageFix" result="shape"/>
<feGaussianBlur stdDeviation="0.3" result="effect1_foregroundBlur_7320_6152"/>
</filter>
<radialGradient id="paint0_radial_7320_6152" cx="0" cy="0" r="1" gradientUnits="userSpaceOnUse" gradientTransform="translate(22.0215 13.971) rotate(-119.993) scale(5.37618 7.49908)">
<stop offset="0.0197505" stop-color="#482641"/>
<stop offset="1" stop-color="#483637"/>
</radialGradient>
<linearGradient id="paint1_linear_7320_6152" x1="25.3027" y1="18.8147" x2="25.3027" y2="15.6272" gradientUnits="userSpaceOnUse">
<stop stop-color="#633563"/>
<stop offset="0.573487" stop-color="#633563" stop-opacity="0"/>
</linearGradient>
<linearGradient id="paint2_linear_7320_6152" x1="27.9277" y1="8.25223" x2="23.8027" y2="14.1272" gradientUnits="userSpaceOnUse">
<stop stop-color="#5A4B4E"/>
<stop offset="1" stop-color="#5A4B4E" stop-opacity="0"/>
</linearGradient>
<radialGradient id="paint3_radial_7320_6152" cx="0" cy="0" r="1" gradientUnits="userSpaceOnUse" gradientTransform="translate(9.9353 13.971) rotate(-60.0073) scale(5.37618 7.49908)">
<stop offset="0.0197505" stop-color="#482641"/>
<stop offset="1" stop-color="#483637"/>
</radialGradient>
<linearGradient id="paint4_linear_7320_6152" x1="6.65405" y1="18.8147" x2="6.65405" y2="15.6272" gradientUnits="userSpaceOnUse">
<stop stop-color="#633563"/>
<stop offset="0.573487" stop-color="#633563" stop-opacity="0"/>
</linearGradient>
<linearGradient id="paint5_linear_7320_6152" x1="4.02905" y1="8.25223" x2="8.15405" y2="14.1272" gradientUnits="userSpaceOnUse">
<stop stop-color="#5A4B4E"/>
<stop offset="1" stop-color="#5A4B4E" stop-opacity="0"/>
</linearGradient>
</defs>
</svg>

<svg width="32" height="32" fill="none" xmlns="http://www.w3.org/2000/svg"><g filter="url(#a)"><path d="M26.29 13.976c-.41-2.6-2.84-4.87-5.73-4.24-2.31.5-3.78 2.78-3.28 5.09a3.42 3.42 0 0 0 4.07 2.62 2.742 2.742 0 0 0 2.1-3.26c-.26-1.18-1.23-1.83-2.41-1.58-.95.2-1.31 1.85-.38 2.13" stroke="#B87506" stroke-width="1.5" stroke-miterlimit="10" stroke-linecap="round" stroke-linejoin="round"/></g><g filter="url(#b)"><path d="M4.29 13.976c.41-2.6 2.84-4.87 5.73-4.24 2.31.5 3.78 2.78 3.28 5.09a3.42 3.42 0 0 1-4.07 2.62 2.742 2.742 0 0 1-2.1-3.26c.26-1.18 1.23-1.83 2.41-1.58.95.2 1.31 1.85.38 2.13" stroke="#B56318" stroke-width="1.5" stroke-miterlimit="10" stroke-linecap="round" stroke-linejoin="round"/></g><path d="M26.978 13.32c-.41-2.6-2.84-4.87-5.73-4.24-2.31.5-3.78 2.78-3.28 5.09a3.42 3.42 0 0 0 4.07 2.62 2.742 2.742 0 0 0 2.1-3.26c-.26-1.18-1.23-1.83-2.41-1.58-.95.2-1.31 1.85-.38 2.13" stroke="url(#c)" stroke-width="2" stroke-miterlimit="10" stroke-linecap="round" stroke-linejoin="round"/><path d="M26.978 13.32c-.41-2.6-2.84-4.87-5.73-4.24-2.31.5-3.78 2.78-3.28 5.09a3.42 3.42 0 0 0 4.07 2.62 2.742 2.742 0 0 0 2.1-3.26c-.26-1.18-1.23-1.83-2.41-1.58-.95.2-1.31 1.85-.38 2.13" stroke="url(#d)" stroke-width="2" stroke-miterlimit="10" stroke-linecap="round" stroke-linejoin="round"/><path d="M26.978 13.32c-.41-2.6-2.84-4.87-5.73-4.24-2.31.5-3.78 2.78-3.28 5.09a3.42 3.42 0 0 0 4.07 2.62 2.742 2.742 0 0 0 2.1-3.26c-.26-1.18-1.23-1.83-2.41-1.58-.95.2-1.31 1.85-.38 2.13" stroke="url(#e)" stroke-width="2" stroke-miterlimit="10" stroke-linecap="round" stroke-linejoin="round"/><path d="M4.978 13.32c.41-2.6 2.84-4.87 5.73-4.24 2.31.5 3.78 2.78 3.28 5.09a3.42 3.42 0 0 1-4.07 2.62 2.742 2.742 0 0 1-2.1-3.26c.26-1.18 1.23-1.83 2.41-1.58.95.2 1.31 1.85.38 2.13" stroke="url(#f)" stroke-width="2" stroke-miterlimit="10" stroke-linecap="round" stroke-linejoin="round"/><path d="M4.978 13.32c.41-2.6 2.84-4.87 5.73-4.24 2.31.5 3.78 2.78 3.28 5.09a3.42 3.42 0 0 1-4.07 2.62 2.742 2.742 0 0 1-2.1-3.26c.26-1.18 1.23-1.83 2.41-1.58.95.2 1.31 1.85.38 2.13" stroke="url(#g)" stroke-width="2" stroke-miterlimit="10" stroke-linecap="round" stroke-linejoin="round"/><path d="M4.978 13.32c.41-2.6 2.84-4.87 5.73-4.24 2.31.5 3.78 2.78 3.28 5.09a3.42 3.42 0 0 1-4.07 2.62 2.742 2.742 0 0 1-2.1-3.26c.26-1.18 1.23-1.83 2.41-1.58.95.2 1.31 1.85.38 2.13" stroke="url(#h)" stroke-width="2" stroke-miterlimit="10" stroke-linecap="round" stroke-linejoin="round"/><g filter="url(#i)"><path d="M26.978 13.32c-.41-2.6-2.84-4.87-5.73-4.24-2.31.5-3.78 2.78-3.28 5.09a3.42 3.42 0 0 0 4.07 2.62 2.742 2.742 0 0 0 2.1-3.26c-.26-1.18-1.23-1.83-2.41-1.58-.95.2-1.31 1.85-.38 2.13" stroke="#694C5E" stroke-width=".4" stroke-linecap="round" stroke-linejoin="round"/></g><g filter="url(#j)"><path d="M4.978 13.32c.41-2.6 2.84-4.87 5.73-4.24 2.31.5 3.78 2.78 3.28 5.09a3.42 3.42 0 0 1-4.07 2.62 2.742 2.742 0 0 1-2.1-3.26c.26-1.18 1.23-1.83 2.41-1.58.95.2 1.31 1.85.38 2.13" stroke="#694C5E" stroke-width=".4" stroke-linecap="round" stroke-linejoin="round"/></g><defs><linearGradient id="d" x1="25.303" y1="18.815" x2="25.303" y2="15.627" gradientUnits="userSpaceOnUse"><stop stop-color="#633563"/><stop offset=".573" stop-color="#633563" stop-opacity="0"/></linearGradient><linearGradient id="e" x1="27.928" y1="8.252" x2="23.803" y2="14.127" gradientUnits="userSpaceOnUse"><stop stop-color="#5A4B4E"/><stop offset="1" stop-color="#5A4B4E" stop-opacity="0"/></linearGradient><linearGradient id="g" x1="6.654" y1="18.815" x2="6.654" y2="15.627" gradientUnits="userSpaceOnUse"><stop stop-color="#633563"/><stop offset=".573" stop-color="#633563" stop-opacity="0"/></linearGradient><linearGradient id="h" x1="4.029" y1="8.252" x2="8.154" y2="14.127" gradientUnits="userSpaceOnUse"><stop stop-color="#5A4B4E"/><stop offset="1" stop-color="#5A4B4E" stop-opacity="0"/></linearGradient><filter id="a" x="15.433" y="7.878" width="12.608" height="11.397" filterUnits="userSpaceOnUse" color-interpolation-filters="sRGB"><feFlood flood-opacity="0" result="BackgroundImageFix"/><feBlend in="SourceGraphic" in2="BackgroundImageFix" result="shape"/><feGaussianBlur stdDeviation=".5" result="effect1_foregroundBlur_7320_6152"/></filter><filter id="b" x="2.541" y="7.878" width="12.608" height="11.397" filterUnits="userSpaceOnUse" color-interpolation-filters="sRGB"><feFlood flood-opacity="0" result="BackgroundImageFix"/><feBlend in="SourceGraphic" in2="BackgroundImageFix" result="shape"/><feGaussianBlur stdDeviation=".5" result="effect1_foregroundBlur_7320_6152"/></filter><filter id="i" x="17.071" y="8.173" width="10.708" height="9.495" filterUnits="userSpaceOnUse" color-interpolation-filters="sRGB"><feFlood flood-opacity="0" result="BackgroundImageFix"/><feBlend in="SourceGraphic" in2="BackgroundImageFix" result="shape"/><feGaussianBlur stdDeviation=".3" result="effect1_foregroundBlur_7320_6152"/></filter><filter id="j" x="4.178" y="8.173" width="10.708" height="9.495" filterUnits="userSpaceOnUse" color-interpolation-filters="sRGB"><feFlood flood-opacity="0" result="BackgroundImageFix"/><feBlend in="SourceGraphic" in2="BackgroundImageFix" result="shape"/><feGaussianBlur stdDeviation=".3" result="effect1_foregroundBlur_7320_6152"/></filter><radialGradient id="c" cx="0" cy="0" r="1" gradientUnits="userSpaceOnUse" gradientTransform="rotate(-119.993 15.044 .628) scale(5.37618 7.49908)"><stop offset=".02" stop-color="#482641"/><stop offset="1" stop-color="#483637"/></radialGradient><radialGradient id="f" cx="0" cy="0" r="1" gradientUnits="userSpaceOnUse" gradientTransform="rotate(-60.007 17.065 -1.617) scale(5.37618 7.49908)"><stop offset=".02" stop-color="#482641"/><stop offset="1" stop-color="#483637"/></radialGradient></defs></svg>
